picto/departure-right-framed.svg

<svg class="color-immutable" width="30" height="30" viewBox="0 0 30 30" fill="none" xmlns="http://www.w3.org/2000/svg"><path d="M29.9999 0H0V29.9999H29.9999V0Z" fill="#2D327D"/><path d="M25.4999 2.99999C26.3249 2.99999 26.9999 3.67499 26.9999 4.49999V25.4999C26.9999 26.3249 26.3249 26.9999 25.4999 26.9999H4.49999C3.67499 26.9999 2.99999 26.3249 2.99999 25.4999V4.49999C2.99999 3.67499 3.67499 2.99999 4.49999 2.99999H25.4999ZM25.4999 2.62499H4.49999C3.46612 2.62499 2.62499 3.46612 2.62499 4.49999V25.4999C2.62499 26.5338 3.46612 27.3749 4.49999 27.3749H25.4999C26.5338 27.3749 27.3749 26.5338 27.3749 25.4999V4.49999C27.3749 3.46612 26.5338 2.62499 25.4999 2.62499Z" fill="white"/><path d="M23.8125 24.1854H6.18754C6.08509 24.1854 6.00206 24.1025 6.00206 23.9999C6.00206 23.8974 6.08509 23.8145 6.18754 23.8145H23.8125C23.915 23.8145 23.998 23.8974 23.998 23.9999C23.998 24.1025 23.915 24.1854 23.8125 24.1854Z" fill="white"/><path d="M24.1191 11.808C23.8221 11.6288 23.5 11.4951 23.1639 11.4096C22.4832 11.2364 21.7657 11.2687 21.1027 11.502L15.6081 13.5021L8.6092 7.79054L7.15135 8.19457L10.7439 15.2723L8.1997 16.1983L6.44388 14.019L5.36913 14.4668L6.93025 18.1961H12.2822L22.8876 14.3358C23.4027 14.1484 23.8765 13.8623 24.283 13.4947L24.2828 13.4956C24.4374 13.3555 24.5471 13.1734 24.5983 12.9724C24.713 12.5212 24.5177 12.0477 24.1191 11.808Z" fill="white"/></svg>

<svg class="color-immutable" width="30" height="30" viewBox="0 0 30 30" fill="none" xmlns="http://www.w3.org/2000/svg"><path d="M30 0H0v30h30V0Z" fill="#2D327D"/><path d="M25.5 3c.825 0 1.5.675 1.5 1.5v21c0 .825-.675 1.5-1.5 1.5h-21c-.825 0-1.5-.675-1.5-1.5v-21C3 3.675 3.675 3 4.5 3h21Zm0-.375h-21A1.877 1.877 0 0 0 2.625 4.5v21c0 1.034.841 1.875 1.875 1.875h21a1.877 1.877 0 0 0 1.875-1.875v-21A1.877 1.877 0 0 0 25.5 2.625Z" fill="#fff"/><path d="M23.813 24.185H6.188a.185.185 0 1 1 0-.37h17.625a.185.185 0 1 1 0 .37ZM24.12 11.808a3.564 3.564 0 0 0-3.016-.306l-5.496 2L8.61 7.791l-1.458.404 3.593 7.077-2.544.926-1.756-2.179-1.075.448 1.561 3.73h5.352l10.606-3.861a4.245 4.245 0 0 0 1.395-.841 1.056 1.056 0 0 0-.164-1.688Z" fill="#fff"/></svg>
